X:17
T:Deep Cutting
S:Andy Hornby
R:Hornpipe
O:England
N:June 95
M:4/4
C:Andy Hornby
A:Lancaster
K:G
(3DEF|\
G2d>B A2c>A|G>AB>G D2G>F|\
E>Gc>E D>GB>G|A>Bc>A F>AD>A|
G2D>B A2c>A|G>AB>G D2G>F|\
E>Gc>E D>GB>G|A>cA>F G2 :|
|: A>G|\
F>AA>F D>FA>F|G>BB>G D>GB>G|\
A>Bc>A F>GA>F|G>AB>G d>GB>G|
F>AA>F D>FA>F|G>BB>G D>GB>G|\
A>Bc>A F>AD>F|A>GG>F G2:|
W:Copyright Andy Hornby
